images/blog__icon.svg

<svg width="64" height="64" viewBox="0 0 64 64" fill="none" xmlns="http://www.w3.org/2000/svg">
<g opacity="0.1" clip-path="url(#clip0_1_75)">
<path d="M38.2887 49.0102C36.6882 49.6814 36.017 51.5917 36.7398 53.1405L39.2696 58.4583C39.9924 59.9551 41.7478 60.6268 43.2967 59.9551C47.6852 58.0964 51.4541 55.6698 54.4486 52.727C58.1143 49.2683 60.5925 45.2929 61.9348 40.9044C63.2772 36.4638 64 30.4237 64 22.731L64 6.88083C64 5.17706 62.606 3.78308 60.9023 3.78308L40.612 3.78308C38.9082 3.78308 37.5143 5.17706 37.5143 6.88082L37.5142 27.1711C37.5142 28.8754 38.9082 30.2688 40.612 30.2688L50.3183 30.2688C50.215 35.4839 48.9759 39.6653 46.7042 42.8152C44.8456 45.344 42.0576 47.4092 38.2887 49.0102Z" fill="#2E6EFF"/>
<path d="M1.83712 49.0093C0.236615 49.6805 -0.434047 51.5908 0.288245 53.1397L2.81807 58.4053C3.54088 59.9026 5.29627 60.5737 6.84515 59.9026C11.182 58.0439 14.8998 55.6173 17.9454 52.7261C21.6116 49.2153 24.1409 45.2399 25.4838 40.8514C26.8261 36.5151 27.4968 30.474 27.4968 22.7296L27.4968 6.87943C27.4968 5.17567 26.1028 3.78168 24.3991 3.78168L4.10881 3.78168C2.40504 3.78168 1.01106 5.17567 1.01106 6.87943L1.01106 27.1697C1.01106 28.874 2.40504 30.2674 4.1088 30.2674L13.8667 30.2674C13.7634 35.4825 12.5238 39.6639 10.2527 42.8138C8.39402 45.3431 5.60605 47.4083 1.83712 49.0093Z" fill="#2E6EFF"/>
</g>
<defs>
<clipPath id="clip0_1_75">
<rect width="64" height="64" fill="white" transform="translate(64 64) rotate(-180)"/>
</clipPath>
</defs>
</svg>

<svg width="64" height="64" fill="none" xmlns="http://www.w3.org/2000/svg"><g opacity=".1" clip-path="url(#clip0_1_75)" fill="#2E6EFF"><path d="M38.289 49.01c-1.6.671-2.272 2.582-1.55 4.13l2.53 5.318a3.087 3.087 0 004.028 1.497c4.388-1.859 8.157-4.285 11.152-7.228 3.665-3.459 6.144-7.434 7.486-11.823C63.277 36.464 64 30.424 64 22.731V6.881a3.107 3.107 0 00-3.098-3.098h-20.29a3.107 3.107 0 00-3.098 3.098v20.29a3.106 3.106 0 003.098 3.098h9.706c-.103 5.215-1.342 9.396-3.614 12.546-1.858 2.529-4.646 4.594-8.415 6.195zm-36.452 0c-1.6.67-2.271 2.58-1.549 4.13l2.53 5.265a3.087 3.087 0 004.027 1.498c4.337-1.86 8.055-4.286 11.1-7.177 3.667-3.51 6.196-7.486 7.539-11.875 1.342-4.336 2.013-10.377 2.013-18.121V6.88a3.107 3.107 0 00-3.098-3.098H4.11a3.107 3.107 0 00-3.1 3.097v20.29a3.106 3.106 0 003.098 3.098h9.758c-.104 5.216-1.343 9.397-3.614 12.547-1.859 2.53-4.647 4.594-8.416 6.195z"/></g><defs><clipPath id="clip0_1_75"><path fill="#fff" transform="rotate(-180 32 32)" d="M0 0h64v64H0z"/></clipPath></defs></svg>
